X: 32556
T: Planxty George Brabazon
R: reel
M: 4/4
K: Gmajor
ge|d2G2 cBAG|d2G2 cBAG|e2A2 ABcd|e2A2 ABcd|
edcB g2fe|edcB cBAG|BAGE DEGA|B2G2 G2||
ga|b2gb a2fa|g2eg edcB|e2A2 ABcd|e2A2 A2 ga|
b2gb a2fa|g2eg edcB|cBAG DEGA|B2G2 G2||
M:6/8
G2g gdg|gdg fed|B2g gdc|Bc/d/B cAF|
G2g gdg|gdg fed|B2g gdc|Bc/d/B cAF||
B3 c3|d2g gab|B2 c3|Bc/d/B cAF|
BAG GAG|G2g gdc|BAG GDG|Bc/d/B cAF||

